public/common/form/large_green_we.svg

<svg width="259" height="163" viewBox="0 0 259 163" fill="none" xmlns="http://www.w3.org/2000/svg">
<path d="M28.4949 135.535C13.0701 135.535 0.567383 123.04 0.567383 107.624L0.567383 28.5003C0.567383 13.0848 13.0701 0.5896 28.4949 0.5896L230.34 0.5896C245.765 0.5896 258.267 13.0848 258.267 28.5003V135.535L28.4949 135.535Z" fill="#34D186"/>
<path d="M32.7098 31.0845H51.3182L66.5561 74.1717L82.9524 31.0845H94.3342L110.432 73.6862L125.684 31.0845H144.412L116.761 106.818H104.715L88.5574 63.6632L71.9144 106.818H60.0021L32.7098 31.0845Z" fill="white"/>
<path d="M231.102 74.448H170.023C170.905 79.833 173.259 84.1126 177.093 87.2868C180.919 90.4685 185.807 92.0519 191.755 92.0519C198.862 92.0519 204.961 89.5722 210.072 84.6055L226.087 92.1265C222.097 97.7879 217.314 101.978 211.739 104.689C206.164 107.408 199.55 108.759 191.89 108.759C180 108.759 170.322 105.01 162.849 97.519C155.376 90.0278 151.639 80.6396 151.639 69.3618C151.639 57.8077 155.368 48.2103 162.819 40.5773C170.27 32.9442 179.611 29.1277 190.851 29.1277C202.786 29.1277 212.486 32.9442 219.967 40.5773C227.44 48.2103 231.177 58.2931 231.177 70.8182L231.102 74.448ZM212.09 59.4881C210.835 55.2683 208.361 51.8327 204.662 49.1887C200.962 46.5448 196.673 45.2228 191.793 45.2228C186.494 45.2228 181.838 46.7091 177.84 49.6742C175.329 51.5339 173.005 54.8052 170.86 59.4881L212.09 59.4881Z" fill="white"/>
<path d="M248.41 144.662C250.831 144.662 252.901 145.536 254.635 147.291C256.369 149.038 257.228 151.16 257.228 153.654C257.228 156.111 256.369 158.21 254.658 159.943C252.946 161.676 250.899 162.542 248.515 162.542C246.063 162.542 243.971 161.661 242.237 159.89C240.503 158.12 239.644 155.977 239.644 153.452C239.644 151.025 240.496 148.956 242.215 147.238C243.926 145.521 245.989 144.662 248.41 144.662Z" fill="#34D186"/>
</svg>

<svg width="259" height="163" fill="none" xmlns="http://www.w3.org/2000/svg"><path d="M28.495 135.535C13.07 135.535.567 123.04.567 107.624V28.5C.567 13.085 13.07.59 28.495.59H230.34c15.425 0 27.927 12.495 27.927 27.91v107.035H28.495z" fill="#34D186"/><path d="M32.71 31.084h18.608l15.238 43.088 16.396-43.087h11.382l16.098 42.601 15.252-42.602h18.728l-27.651 75.734h-12.046L88.557 63.663l-16.643 43.155H60.002L32.71 31.085zM231.102 74.448h-61.079c.882 5.385 3.236 9.665 7.07 12.839 3.826 3.181 8.714 4.765 14.662 4.765 7.107 0 13.206-2.48 18.317-7.447l16.015 7.521c-3.99 5.662-8.773 9.852-14.348 12.563-5.575 2.719-12.189 4.07-19.849 4.07-11.89 0-21.568-3.749-29.041-11.24-7.473-7.491-11.21-16.88-11.21-28.157 0-11.554 3.729-21.152 11.18-28.785 7.451-7.633 16.792-11.45 28.032-11.45 11.935 0 21.635 3.817 29.116 11.45 7.473 7.633 11.21 17.716 11.21 30.241l-.075 3.63zm-19.012-14.96c-1.255-4.22-3.729-7.655-7.428-10.3-3.7-2.643-7.989-3.965-12.869-3.965-5.299 0-9.955 1.486-13.953 4.451-2.511 1.86-4.835 5.131-6.98 9.814h41.23z" fill="#fff"/><path d="M248.41 144.662c2.421 0 4.491.874 6.225 2.629 1.734 1.747 2.593 3.869 2.593 6.363 0 2.457-.859 4.556-2.57 6.289-1.712 1.733-3.759 2.599-6.143 2.599-2.452 0-4.544-.881-6.278-2.652-1.734-1.77-2.593-3.913-2.593-6.438 0-2.427.852-4.496 2.571-6.214 1.711-1.717 3.774-2.576 6.195-2.576z" fill="#34D186"/></svg>
